assets/icons/faq.svg

<svg width="14" height="14" viewBox="0 0 14 14" fill="none" xmlns="http://www.w3.org/2000/svg">
<path d="M12.635 2.66H11.305V8.645H2.66V9.975C2.66053 10.1512 2.73076 10.32 2.85536 10.4446C2.97995 10.5692 3.14879 10.6395 3.325 10.64H10.64L13.3 13.3V3.325C13.2995 3.14879 13.2292 2.97995 13.1046 2.85536C12.98 2.73076 12.8112 2.66053 12.635 2.66ZM9.975 6.65V0.665C9.97447 0.488793 9.90424 0.319954 9.77964 0.195357C9.65505 0.0707593 9.48621 0.000527569 9.31 0H0.665C0.488793 0.000527569 0.319954 0.0707593 0.195357 0.195357C0.0707593 0.319954 0.000527569 0.488793 0 0.665V9.975L2.66 7.315H9.31C9.48621 7.31447 9.65505 7.24424 9.77964 7.11964C9.90424 6.99505 9.97447 6.82621 9.975 6.65Z" fill="white"/>
</svg>

<svg xmlns="http://www.w3.org/2000/svg" width="14" height="14" fill="none"><path fill="#fff" d="M12.635 2.66h-1.33v5.985H2.66v1.33a.667.667 0 0 0 .665.665h7.315l2.66 2.66V3.325a.667.667 0 0 0-.665-.665m-2.66 3.99V.665A.667.667 0 0 0 9.31 0H.665A.667.667 0 0 0 0 .665v9.31l2.66-2.66h6.65a.667.667 0 0 0 .665-.665"/></svg>
